X: 37448
T: Sliabh Maol
R: reel
M: 4/4
K: Gmajor
G2 BG DGBG|~G2 BG ~G2 BG|L[DA]3 A ABcd|(3efg fa gedB|
G2 BG DGBd|dBGB d2 ef|~g2 fg ecAG|1 (3FED EF GDB,D:|2 (3FED EF G2 Bd||
g2 bg dgbg|f2 af dfaf|g2 bg dgag|fdef gdBd|
g2 bg dgbg|f2 af dfaf|~b2 af gfed|1 (3efg fa gfef:|2 (3efg fa gedB||

